X:1
T: Jumping Geordie
C:
R:Reel
Q: 232
K:G
M:4/4
L:1/8
|:d|g2 dB g2 dB|g2 dB cA A2|g2 dB g2 dB|ce dc BG Gd|
g2 dB g2 dB|g2 dB cA A2|g2 dB g2 dB|ce dc BG Gd|
BG dG eG dG|BG dG cA A2|BG dG eG dG|ce dc BG Gd|
BG dG eG dG|BG dG cA A2|BG dG eG dG|ce dc BG G:|
